src/main/resources/img/object/column/Column.svg

<svg width="16" height="16" version="1.1" viewBox="0 0 16 16"  xmlns="http://www.w3.org/2000/svg"><path d="m2 5h8v8h-8z" fill="#fff" stroke-width=".8165"/><path d="m1 2v12h9v-1h-4v-2h4v-1h-4v-2h4v-1h-4v-2h4v-3h-9zm1 3h3v2h-3v-2zm0 3h3v2h-3v-2zm0 3h3v2h-3v-2z" fill="#afb1b3"/><g transform="translate(-24,-6)"><rect x="35" y="11" width="3" height="8" fill="#cce9ff"/><path d="m34 8v12h5v-12zm1 3h3v2h-3zm0 3h3v2h-3zm0 3h3v2h-3z" fill="#73a9d8"/></g></svg>

<svg width="16" height="16" xmlns="http://www.w3.org/2000/svg"><path d="M2 5h8v8H2z" fill="#fff"/><path d="M1 2v12h9v-1H6v-2h4v-1H6V8h4V7H6V5h4V2H1zm1 3h3v2H2V5zm0 3h3v2H2V8zm0 3h3v2H2v-2z" fill="#afb1b3"/><path fill="#cce9ff" d="M11 5h3v8h-3z"/><path d="M10 2v12h5V2zm1 3h3v2h-3zm0 3h3v2h-3zm0 3h3v2h-3z" fill="#73a9d8"/></svg>
